X: 437
T: A Tune For A Rose
R: reel
M: 4/4
K: Adorian
|:EAAG AAEA|EGAB cBAG|EB,B,E c,EB,E|DEGA BAGD|
EAAG AAEA|EGAB c2 Bc|dB c/B/A BAGD|EGAB A4:|
|:gede BeAB|cAGA EADA|EAAG ABAG|EGAB cdef|
gede BeAB|cAGA EADA|EAAG ABAG|EGAB A4:|

